X:169
T:What pain I've endured since last year
T:Gur mis tha gu cr\`aiteach o'n uiridh
R:Slow Air
S:Simon Fraser Collection
N:No.153
O:Scottish
M:9/8
L:1/8
Q:3/8=70
K:G
(g/f/)|eBB B>AG F<D z/F/|[G,2E2]F (G>FG) [G2B2] (g/f/)|
eBB B>AG F<D z/F/|E>Fd B>AG [G,2E2]:|
B|Bee Bgg fdd|Bee Bgg f2A|Bee Bgg f>ed|e2 d/B/ B>^AB/^d/ e2 (d/c/)|
Bee Bgg fdd|Bee Bgg f2A|B(ef) g>ag f>ed|e2 d/B/ B>^A/B/^d/ e2||

